X:1
T:James Gibb editions
T:O bone Jesu - Compère
T:#
%%score [ 1 2 3 4 ]
L:1/8
Q:1/4=120
M:2/2
K:C
V:1 treble nm="Soprano" snm="S"
V:2 treble nm="Alto" snm="A"
V:3 treble-8 nm="Tenor" snm="T"
V:4 bass nm="Bass" snm="B"
V:1
"^Loyset Compère\n(1445-1518)""^O bone Jesu" G8 | A8 | G8 | F8 | E8 | z4 E4 | (G8 | A2 B2 c4- | %8
w: O|bo-|ne|Je-|su,|O|bo\-||
 c4) B4 |[M:2/2] (G6 FE | D8) | !fermata!E8 | c4 B4 | A4 G4 | z8 | z8 | G4 E3 F | E2 C2 D2 E2 | %18
w: * ne|Je\- * *||su,|il- lu-|mi- na,|||il- lu- mi-|na o- cu- los|
 F8 | !fermata!E8 | G4 G4 | A4 G2 A2- | A2 (GF) E2 (G2- | G2 FE) D4 | C4 z4 | z8 | z8 | z8 | z8 | %29
w: me-|os,|ne un-|quam ob- dor\-|* mi\- * am in|* * * mor-|te,|||||
 G8 | G4 G4 | G8 | G8 | (E4 D4 | E2 F2 G4- | G4) ^F4 | (G6 FE | D8) | !fermata!E8 | G8 | G4 G4 | %41
w: prae-|va- lu-|i|ad-|ver\- *||* sus|e\- * *||um.|In|ma- nus|
 A8 | G4 c4- | c4 B4 | c8 | z4 B4 | B4 B4 | (A2 B2 c4) | B4 G4 | (A4 G4- | G4 ^F4) | !fermata!G8 | %52
w: tu-|as, Do\-|* mi-|ne,|com-|men- do|spi\- * *|ri- tum|me\- *||um.|
 G4 G4 | A4 B4 | c8 | (c2 d2 e4- | e4) (d2 c2) | B8 | z4 G4 | A4 G4 | (A2 B2) (c4- | c4 B4) | %62
w: Re- de-|mis- ti|nos,|Do\- * *|* mi\- *|ne,|De-|us ve-|ri\- * ta\-||
 !fermata!c8 | c8 | B8 | A8 | !fermata!G8 | c4 B2 B2 | G2 G2 E2 E2 | F4 E4 | G6 G2 | G4 A2 A2 | %72
w: tis;|O|Mes-|si-|as,|lo- cu- tus|sum in lin- gua|me- a,|no- tum|fac mi- hi,|
 A2 A2 G4- | G4 z4 | c4 B2 (c2- | c2 BA G2 A2- | A2 G4 ^F2) | G8 | ^F8 | !fermata!G8 |] %80
w: Do- mi- ne,||fi- nem me\-|||um.|A-|men.|
V:2
 z8 | D8 | E4 C4 | (A,4 B,4) | C8 | C8 | (D4 E4 | F8) | D8 |[M:2/2] (E4 C4- | C4 B,4) | %11
w: |O|bo- ne|Je\- *|su,|O|bo\- *||ne|Je\- *||
 !fermata!C8 | z8 | F4 E4 | D4 C4 | z4 (D4 | E3 F G2 C2- | C2) (E3 D) (CB,) | (A,4 B,4) | %19
w: su,||il- lu-|mi- na|o\-||* cu\- * los *|me\- *|
 !fermata!C8 | C4 C4 | F4 E2 F2- | F2 (ED) C2 (B,A,) | (B,2 C4 B,2) | C4 z4 | z8 | z8 | z8 | z8 | %29
w: os,|ne un-|quam ob- dor\-|* mi\- * am in *|mor- * *|te,|||||
 D8 | D4 D4 | E8 | D8 | G8- | G4 E4 | (D8- | B,4 C4- | C4 B,4) | !fermata!C8 | E8 | E4 E4 | F8 | %42
w: prae-|va- lu-|i|ad-|ver\-|* sus|e\-|||um.|In|ma- nus|tu-|
 (E2 F2) (G4- | G2 F2) G4 | E8 | z4 (G4- | G2 FE D2 E2) | F4 (E2 F2) | (G4 E4 | C4) B,2 C2 | D8 | %51
w: as, * Do\-|* * mi-|ne,|com\-||men- do *|spi\- *|* ri- tum|me-|
 !fermata!D8 | D4 D4 | D4 D4 | E8 | E8 | C8 | D8 | E4 E4 | F4 E4 | (C4 F4 | D8) | !fermata!E8 | %63
w: um.|Re- de-|mis- ti|nos,|Do-|mi-|ne,|De- us|ve- ri-|ta\- *||tis;|
 G8 | G8 | E8 | !fermata!E8 | G4 G2 G2 | E2 E2 C2 C2 | A,4 C4 | D6 D2 | D4 F2 F2 | F2 F2 E4 | %73
w: O|Mes-|si-|as,|lo- cu- tus|sum in lin- gua|me- a,|no- tum|fac mi- hi,|Do- mi- ne,|
 E4 (E4 | E2 F2 G2 E2) | (C2 D2 E2 F2- | FE C2) D4 | D8- | D8 | !fermata!D8 |] %80
w: fi- nem||me\- * * *|* * * um.|A\-||men.|
V:3
 z8 | z8 | z8 | z8 | G8 | A8 | G8 | F8 | G8 |[M:2/2][K:treble-8] z8 | z4 G4 | !fermata!G8 | z8 | %13
w: ||||O|bo-|ne|Je-|su,||Je-|su,||
 z4 c4 | B4 A4 | G2 c4 B2 | c4 G4 | G4 G4 | F8 | !fermata!G8 | z8 | z8 | z8 | z4 G4 | A4 G2 (c2- | %25
w: il-|lu- mi-|na o- cu-|los, o-|cu- los|me-|os,||||ne|quan- do di\-|
 c2 B2) c4 | c4 c4 | A4 B2 (c2- | c2 B2) c4 | B8 | B4 B4 | c8 | B8 | (c4 B4) | c8 | A8 | G8 | %37
w: * * cat|i- ni-|mi- cus me\-|* * us,|prae-|va- lu-|i|ad-|ver\- *|sus|e-|um,|
 z4 G4 | !fermata!G8 | c8 | c4 c4 | c8 | c8 | d4 d4 | c8 | z4 d4 | d2 d2 B4 | c4 c4 | (d4 c4 | %49
w: e-|um.|In|ma- nus|tu-|as,|Do- mi-|ne,|com-|men- do spi-|ri- tum|me\- *|
 A4 B4 | A8) | !fermata!G8 | G4 G4 | ^F4 F4 | G8 | G8 | G8 | G8 | c4 c4 | c4 c4 | A8 | G8- | %62
w: ||um.|Re- de-|mis- ti|nos,|Do-|mi-|ne,|De- us|ve- ri-|ta-|tis;|
 !fermata!G8 | c8 | d8 | c8 | !fermata!B8 | c4 d2 d2 | c2 (BA) G2 G2 | F4 G4 | B6 B2 | B4 c2 c2 | %72
w: |O|Mes-|si-|as,|lo- cu- tus|sum in * lin- gua|me- a,|no- tum|fac mi- hi,|
 c2 B2 c4 | c4 c4 | (c4 d2 c2 | A2 B2 c3 B | G4 A4) | G8 | A8 | !fermata!G8 |] %80
w: Do- mi- ne,|fi- nem|me\- * *|||um.|A-|men.|
V:4
 z8 | z8 | C,8 | D,8 | C,8 | z8 | z8 | z8 | z8 |[M:2/2] (C,8 | G,8) | !fermata!C,8 | z8 | z8 | %14
w: ||O|bo-|ne,|||||Je\-||su,|||
 z4 F,4 | E,4 D,4 | C,4 C,4 | C,4 C,4 | D,8 | !fermata!C,8 | z8 | z8 | z8 | z8 | z4 C,4 | %25
w: il-|lu- mi-|na o-|cu- los|me-|os,|||||ne|
 D,4 C,2 (F,2- | F,2 E,2) F,4 | F,2 F,2 E,2 C,2 | D,4 C,4 | G,8 | G,4 G,4 | C,8 | G,8 | (C,4 G,4 | %34
w: quan- do di\-|* * cat|i- ni- mi- cus|me- us,|prae-|va- lu-|i|ad-|ver\- *|
 C,8) | D,8 | (E,4 C,4 | G,8) | !fermata!C,8 | C,8 | C,4 C,4 | F,8 | C,8 | G,4 G,4 | C,8 | z4 G,4 | %46
w: |sus|e\- *||um.|In|ma- nus|tu-|as,|Do- mi-|ne,|com-|
 G,4 G,4 | (F,2 G,2 A,4) | (G,4 C,4) | (F,4 G,4) | D,8 | !fermata!G,8 | G,6 (F,E,) | D,4 D,4 | %54
w: men- do|spi\- * *|ri\- *|tum *|me-|um.|Re- de\- *|mis- ti|
 C,8 | C,6 C,2 | C,8 | z8 | C,4 C,4 | F,4 C,4 | (F,8 | G,8) | !fermata!C,8 | C,8 | G,8 | A,8 | %66
w: nos,|Do- mi-|ne,||De- us|ve- ri-|ta\-||tis;|O|Mes-|si-|
 !fermata!E,8 | C,4 G,2 G,2 | C,2 C,2 C,2 C,2 | D,4 C,4 | G,6 G,2 | G,4 F,2 F,2 | F,2 F,2 C,4 | %73
w: as,|lo- cu- tus|sum in lin- gua|me- a,|no- tum|fac mi- hi,|Do- mi- ne,|
 z8 | A,4 G,2 (A,2- | A,2 G,4 F,2- | F,2 E,2 D,4) | G,8 | D,8 | !fermata!G,8 |] %80
w: |fi- nem me\-|||um.|A-|men.|

